assets/stickers/shapes/stickers/imgly_sticker_shapes_badge_20.svg

<svg height="1404" viewBox="0 0 2000 1404" width="2000" xmlns="http://www.w3.org/2000/svg"><path d="m87.655 701.993 912.345-639.693 912.346 639.692-912.346 639.709zm1912.345-.001-1000-701.152-1000 701.153 1000 701.169zm-1000-674.53 962.029 674.53-962.029 674.549-962.031-674.548z" fill="#fff" transform=""/></svg>

<?xml version="1.0" encoding="UTF-8"?>
<svg width="2000px" height="1404px" viewBox="0 0 2000 1404" version="1.1" xmlns="http://www.w3.org/2000/svg" xmlns:xlink="http://www.w3.org/1999/xlink">
    <!-- Generator: Sketch 43.1 (39012) - http://www.bohemiancoding.com/sketch -->
    <title>imgly_sticker_shapes_badge_20</title>
    <desc>Created with Sketch.</desc>
    <defs></defs>
    <g id="Page-1" stroke="none" stroke-width="1" fill="none" fill-rule="evenodd">
        <g id="Artboard" transform="translate(-1115.000000, -7862.000000)" fill-rule="nonzero" fill="#FFFFFF">
            <g id="badge_20" transform="translate(1115.000000, 7862.000000)">
                <path d="M87.655,701.993 L1000,62.3 L1912.346,701.992 L1000,1341.701 L87.655,701.993 Z M2000,701.992 L1000,0.84 L0,701.993 L1000,1403.162 L2000,701.992 Z M1000,27.462 L1962.029,701.992 L1000,1376.541 L37.969,701.993 L1000,27.462 Z" id="Shape"></path>
            </g>
        </g>
    </g>
</svg>
